X: 18835
T: Immigrants', The
R: waltz
M: 3/4
K: Amajor
ABc|e3ABc|e3ABc|e4e2|c4A2|
F3DFA|G3EGB|A4E2|{E}A3ABc|
e3ABc|e3ABc|e4e2|c4A2|
F3DFA|G3EGB|A4E2|{E}A4EG|
A4A2|F4D2|E4G2|A4EG|
A4A2|F4D2|E4E2|C2A,2EG|
A4A2|F4D2|E4B2|A4EG|
A4A2|F4D2|E4G2|A3:|

